X:78
T:Trip to Germany, A
M:C
L:1/8
B:Thompson's Compleat Collection of 200 Favourite Country Dances, vol. 2 (London, 1765)
Z:Transcribed and edited by Flynn Titford-Mock, 2007
Z:abc's:AK/Fiddler's Companion
K:D
g | fddA AFFD | Eg f/g/a/f/ e3g | fddA AFFD | Eg f/g/a/f/ d3 :|
|: g | f/g/a/f/ dg f/g/a/f/ df | g/a/b/g/ eg g/a/b/g/ eg | f/g/a/f/ dg f/g/a/f/ df | eg a/g/f/e/ d3 :|

